Synaptic Presets (Series 1)/Tsim Sha Tsui 1.lrtemplate
s = {
	id = "058C2110-0D01-4906-85D5-8C76731A2867",
	internalName = "Synaptic LR: Tsim Tsa Shui 1",
	title = "Tsim Sha Tsui 1",
	type = "Develop",
	value = {
		settings = {
			AutoBrightness = false,
			AutoContrast = false,
			AutoExposure = false,
			AutoShadows = false,
			AutoTone = true,
			BlueHue = 0,
			BlueSaturation = 0,
			CameraProfile = "Adobe Standard",
			Clarity2012 = 52,
			ConvertToGrayscale = false,
			EnableCalibration = true,
			EnableColorAdjustments = true,
			EnableSplitToning = true,
			GreenHue = 0,
			GreenSaturation = -15,
			HueAdjustmentAqua = 0,
			HueAdjustmentBlue = 0,
			HueAdjustmentGreen = 0,
			HueAdjustmentMagenta = 0,
			HueAdjustmentOrange = 0,
			HueAdjustmentPurple = 0,
			HueAdjustmentRed = -20,
			HueAdjustmentYellow = 0,
			LuminanceAdjustmentAqua = 8,
			LuminanceAdjustmentBlue = -23,
			LuminanceAdjustmentGreen = 0,
			LuminanceAdjustmentMagenta = 0,
			LuminanceAdjustmentOrange = -22,
			LuminanceAdjustmentPurple = 0,
			LuminanceAdjustmentRed = 0,
			LuminanceAdjustmentYellow = 0,
			ParametricDarks = 43,
			ParametricHighlightSplit = 75,
			ParametricHighlights = 5,
			ParametricLights = 36,
			ParametricMidtoneSplit = 42,
			ParametricShadowSplit = 17,
			ParametricShadows = -41,
			ProcessVersion = "6.7",
			RedHue = 0,
			RedSaturation = 0,
			Saturation = 0,
			SaturationAdjustmentAqua = 30,
			SaturationAdjustmentBlue = 7,
			SaturationAdjustmentGreen = 0,
			SaturationAdjustmentMagenta = 14,
			SaturationAdjustmentOrange = -25,
			SaturationAdjustmentPurple = -19,
			SaturationAdjustmentRed = 0,
			SaturationAdjustmentYellow = -18,
			ShadowTint = -22,
			SplitToningBalance = 46,
			SplitToningHighlightHue = 62,
			SplitToningHighlightSaturation = 47,
			SplitToningShadowHue = 302,
			SplitToningShadowSaturation = 43,
			ToneCurveName2012 = "Custom",
			ToneCurvePV2012 = {
				0,
				0,
				17,
				26,
				34,
				44,
				51,
				60,
				68,
				74,
				85,
				89,
				102,
				105,
				119,
				120,
				136,
				135,
				153,
				151,
				170,
				167,
				187,
				183,
				204,
				200,
				221,
				218,
				238,
				236,
				255,
				255,
			},
			ToneCurvePV2012Blue = {
				0,
				0,
				255,
				255,
			},
			ToneCurvePV2012Green = {
				0,
				0,
				255,
				255,
			},
			ToneCurvePV2012Red = {
				0,
				0,
				255,
				255,
			},
			Vibrance = -26,
		},
		uuid = "5FDC6259-E222-41BD-8CB2-67E41503BD69",
	},
	version = 0,
}
