Synaptic Presets (2012)/Seoul 2.lrtemplate
s = {
	id = "28206D20-38E2-4B8D-BECF-F10A58B08665",
	internalName = "Synaptic EX: Seoul Love Hotel 1",
	title = "Seoul 2",
	type = "Develop",
	value = {
		settings = {
			Blacks2012 = 25,
			BlueHue = 0,
			BlueSaturation = 0,
			CameraProfile = "Adobe Standard",
			Clarity2012 = 13,
			ColorNoiseReduction = 25,
			ColorNoiseReductionDetail = 50,
			Contrast2012 = -1,
			ConvertToGrayscale = false,
			EnableCalibration = true,
			EnableColorAdjustments = true,
			EnableDetail = true,
			EnableSplitToning = true,
			Exposure2012 = 0.54,
			GreenHue = 0,
			GreenSaturation = 0,
			Highlights2012 = -10,
			HueAdjustmentAqua = 0,
			HueAdjustmentBlue = 0,
			HueAdjustmentGreen = 0,
			HueAdjustmentMagenta = 0,
			HueAdjustmentOrange = 0,
			HueAdjustmentPurple = 0,
			HueAdjustmentRed = 0,
			HueAdjustmentYellow = 0,
			LuminanceAdjustmentAqua = 0,
			LuminanceAdjustmentBlue = 0,
			LuminanceAdjustmentGreen = 0,
			LuminanceAdjustmentMagenta = 0,
			LuminanceAdjustmentOrange = 0,
			LuminanceAdjustmentPurple = 0,
			LuminanceAdjustmentRed = 0,
			LuminanceAdjustmentYellow = 0,
			LuminanceNoiseReductionContrast = 0,
			LuminanceNoiseReductionDetail = 50,
			LuminanceSmoothing = 30,
			ParametricDarks = 60,
			ParametricHighlightSplit = 75,
			ParametricHighlights = -3,
			ParametricLights = 9,
			ParametricMidtoneSplit = 50,
			ParametricShadowSplit = 25,
			ParametricShadows = -24,
			ProcessVersion = "6.7",
			RedHue = 0,
			RedSaturation = 0,
			Saturation = 0,
			SaturationAdjustmentAqua = -23,
			SaturationAdjustmentBlue = -43,
			SaturationAdjustmentGreen = -55,
			SaturationAdjustmentMagenta = 34,
			SaturationAdjustmentOrange = -84,
			SaturationAdjustmentPurple = -5,
			SaturationAdjustmentRed = -64,
			SaturationAdjustmentYellow = -68,
			ShadowTint = 15,
			Shadows2012 = 10,
			SharpenDetail = 25,
			SharpenEdgeMasking = 0,
			SharpenRadius = 1,
			Sharpness = 25,
			SplitToningBalance = 0,
			SplitToningHighlightHue = 46,
			SplitToningHighlightSaturation = 37,
			SplitToningShadowHue = 244,
			SplitToningShadowSaturation = 18,
			ToneCurveName2012 = "Linear",
			ToneCurvePV2012 = {
				0,
				0,
				255,
				255,
			},
			ToneCurvePV2012Blue = {
				0,
				0,
				255,
				255,
			},
			ToneCurvePV2012Green = {
				0,
				0,
				255,
				255,
			},
			ToneCurvePV2012Red = {
				0,
				0,
				255,
				255,
			},
			Vibrance = 47,
			Whites2012 = 0,
		},
		uuid = "86F7186B-477F-4812-848D-857643539DDD",
	},
	version = 0,
}
