Synaptic Presets (2012)/Vancouver 2 (A).lrtemplate
s = {
	id = "48E5719F-34FC-4B00-8813-B45C97E98821",
	internalName = "Synaptic LRP: Electric Fog 2",
	title = "Vancouver 2 (A)",
	type = "Develop",
	value = {
		settings = {
			Blacks2012 = -6,
			BlueHue = 0,
			BlueSaturation = 0,
			CameraProfile = "Adobe Standard",
			Clarity2012 = 0,
			ColorNoiseReduction = 25,
			ColorNoiseReductionDetail = 50,
			Contrast2012 = -15,
			ConvertToGrayscale = false,
			EnableCalibration = true,
			EnableColorAdjustments = true,
			EnableDetail = true,
			EnableSplitToning = true,
			Exposure2012 = -0.05,
			GreenHue = 0,
			GreenSaturation = 0,
			Highlights2012 = -42,
			HueAdjustmentAqua = 0,
			HueAdjustmentBlue = -9,
			HueAdjustmentGreen = 0,
			HueAdjustmentMagenta = 0,
			HueAdjustmentOrange = 0,
			HueAdjustmentPurple = 0,
			HueAdjustmentRed = 0,
			HueAdjustmentYellow = 18,
			LuminanceAdjustmentAqua = 0,
			LuminanceAdjustmentBlue = 0,
			LuminanceAdjustmentGreen = 0,
			LuminanceAdjustmentMagenta = 0,
			LuminanceAdjustmentOrange = 0,
			LuminanceAdjustmentPurple = 0,
			LuminanceAdjustmentRed = 0,
			LuminanceAdjustmentYellow = 0,
			LuminanceNoiseReductionContrast = 0,
			LuminanceNoiseReductionDetail = 50,
			LuminanceSmoothing = 25,
			ParametricDarks = 43,
			ParametricHighlightSplit = 82,
			ParametricHighlights = 12,
			ParametricLights = 44,
			ParametricMidtoneSplit = 50,
			ParametricShadowSplit = 15,
			ParametricShadows = -22,
			ProcessVersion = "6.7",
			RedHue = 0,
			RedSaturation = -66,
			Saturation = -56,
			SaturationAdjustmentAqua = 77,
			SaturationAdjustmentBlue = 48,
			SaturationAdjustmentGreen = 55,
			SaturationAdjustmentMagenta = -91,
			SaturationAdjustmentOrange = -73,
			SaturationAdjustmentPurple = -34,
			SaturationAdjustmentRed = -86,
			SaturationAdjustmentYellow = -22,
			ShadowTint = 26,
			Shadows2012 = 42,
			SharpenDetail = 25,
			SharpenEdgeMasking = 0,
			SharpenRadius = 1,
			Sharpness = 14,
			SplitToningBalance = 24,
			SplitToningHighlightHue = 74,
			SplitToningHighlightSaturation = 23,
			SplitToningShadowHue = 281,
			SplitToningShadowSaturation = 33,
			ToneCurveName2012 = "Custom",
			ToneCurvePV2012 = {
				0,
				0,
				17,
				11,
				34,
				27,
				51,
				45,
				68,
				63,
				85,
				81,
				102,
				99,
				119,
				118,
				136,
				137,
				153,
				156,
				170,
				175,
				187,
				193,
				204,
				210,
				221,
				226,
				238,
				241,
				255,
				255,
			},
			ToneCurvePV2012Blue = {
				0,
				0,
				255,
				255,
			},
			ToneCurvePV2012Green = {
				0,
				0,
				255,
				255,
			},
			ToneCurvePV2012Red = {
				0,
				0,
				255,
				255,
			},
			Vibrance = -75,
			Whites2012 = 42,
		},
		uuid = "23BC8F02-6CF5-425B-905A-7ABA87B78FAB",
	},
	version = 0,
}
