Synaptic LRP- Retro Postcard 3.lrtemplate
s = {
	id = "7DB6C26C-FC34-4783-A895-AB002B71D8F8",
	internalName = "Sutton-1",
	title = "Synaptic LRP: Retro Postcard 3",
	type = "Develop",
	value = {
		settings = {
			AutoBrightness = false,
			AutoContrast = false,
			AutoExposure = false,
			AutoShadows = false,
			BlueHue = 0,
			BlueSaturation = 0,
			Brightness = 29,
			CameraProfile = "ACR 4.4",
			Clarity = 62,
			ColorNoiseReduction = 25,
			ColorNoiseReductionDetail = 50,
			Contrast = 40,
			ConvertToGrayscale = false,
			EnableCalibration = true,
			EnableColorAdjustments = true,
			EnableDetail = true,
			EnableEffects = true,
			EnableLensCorrections = true,
			EnableSplitToning = true,
			Exposure = 0.19,
			FillLight = 14,
			GreenHue = 0,
			GreenSaturation = 0,
			HighlightRecovery = 23,
			HueAdjustmentAqua = 0,
			HueAdjustmentBlue = -21,
			HueAdjustmentGreen = 0,
			HueAdjustmentMagenta = 0,
			HueAdjustmentOrange = 0,
			HueAdjustmentPurple = 0,
			HueAdjustmentRed = 0,
			HueAdjustmentYellow = 29,
			LuminanceAdjustmentAqua = 0,
			LuminanceAdjustmentBlue = -40,
			LuminanceAdjustmentGreen = 0,
			LuminanceAdjustmentMagenta = 0,
			LuminanceAdjustmentOrange = 0,
			LuminanceAdjustmentPurple = 0,
			LuminanceAdjustmentRed = 0,
			LuminanceAdjustmentYellow = 0,
			LuminanceNoiseReductionContrast = 0,
			LuminanceNoiseReductionDetail = 50,
			LuminanceSmoothing = 25,
			ParametricDarks = 58,
			ParametricHighlightSplit = 75,
			ParametricHighlights = 20,
			ParametricLights = 38,
			ParametricMidtoneSplit = 50,
			ParametricShadowSplit = 25,
			ParametricShadows = -16,
			PostCropVignetteAmount = 0,
			PostCropVignetteFeather = 50,
			PostCropVignetteHighlightContrast = 0,
			PostCropVignetteMidpoint = 50,
			PostCropVignetteRoundness = 0,
			PostCropVignetteStyle = 1,
			ProcessVersion = "5.7",
			RedHue = 0,
			RedSaturation = 0,
			Saturation = 0,
			SaturationAdjustmentAqua = 2,
			SaturationAdjustmentBlue = -7,
			SaturationAdjustmentGreen = 0,
			SaturationAdjustmentMagenta = 0,
			SaturationAdjustmentOrange = 0,
			SaturationAdjustmentPurple = 0,
			SaturationAdjustmentRed = 0,
			SaturationAdjustmentYellow = 0,
			ShadowTint = 13,
			Shadows = 8,
			SharpenDetail = 25,
			SharpenEdgeMasking = 0,
			SharpenRadius = 1,
			Sharpness = 24,
			SplitToningBalance = 81,
			SplitToningHighlightHue = 59,
			SplitToningHighlightSaturation = 69,
			SplitToningShadowHue = 17,
			SplitToningShadowSaturation = 52,
			Temperature = 4024,
			Tint = 3,
			ToneCurve = {
				0,
				0,
				32,
				16,
				64,
				50,
				128,
				128,
				192,
				202,
				255,
				255,
			},
			ToneCurveName = "Strong Contrast",
			Vibrance = 21,
			VignetteAmount = -100,
			VignetteMidpoint = 23,
			WhiteBalance = "Custom",
		},
		uuid = "5158517F-38C1-4A06-8C2F-A81010B1F4F6",
	},
	version = 0,
}
