Synaptic LRP- Harsh 3.lrtemplate
s = {
	id = "4250BC72-CEA4-4AA9-90A3-B726EE89015D",
	internalName = "Dramatic 1",
	title = "Synaptic LRP: Harsh 3",
	type = "Develop",
	value = {
		settings = {
			AutoBrightness = false,
			AutoContrast = false,
			AutoExposure = false,
			AutoShadows = false,
			BlueHue = 0,
			BlueSaturation = 0,
			Brightness = 0,
			CameraProfile = "ACR 4.4",
			Clarity = 69,
			Contrast = 50,
			ConvertToGrayscale = false,
			EnableCalibration = true,
			EnableColorAdjustments = true,
			EnableDetail = true,
			EnableGrayscaleMix = true,
			EnableSplitToning = true,
			EnableVignettes = true,
			Exposure = 1.55,
			FillLight = 0,
			GreenHue = 0,
			GreenSaturation = 0,
			HighlightRecovery = 0,
			HueAdjustmentAqua = 0,
			HueAdjustmentBlue = 12,
			HueAdjustmentGreen = 0,
			HueAdjustmentMagenta = -100,
			HueAdjustmentOrange = -14,
			HueAdjustmentPurple = -50,
			HueAdjustmentRed = -17,
			HueAdjustmentYellow = 0,
			LuminanceAdjustmentAqua = 0,
			LuminanceAdjustmentBlue = 5,
			LuminanceAdjustmentGreen = 0,
			LuminanceAdjustmentMagenta = 0,
			LuminanceAdjustmentOrange = 0,
			LuminanceAdjustmentPurple = 0,
			LuminanceAdjustmentRed = 0,
			LuminanceAdjustmentYellow = 0,
			ParametricDarks = 24,
			ParametricHighlightSplit = 75,
			ParametricHighlights = 0,
			ParametricLights = 10,
			ParametricMidtoneSplit = 50,
			ParametricShadowSplit = 25,
			ParametricShadows = 7,
			PostCropVignetteAmount = 0,
			PostCropVignetteFeather = 50,
			PostCropVignetteMidpoint = 49,
			PostCropVignetteRoundness = 0,
			RedHue = 0,
			RedSaturation = 0,
			Saturation = -12,
			SaturationAdjustmentAqua = 0,
			SaturationAdjustmentBlue = 0,
			SaturationAdjustmentGreen = 0,
			SaturationAdjustmentMagenta = 0,
			SaturationAdjustmentOrange = 40,
			SaturationAdjustmentPurple = 0,
			SaturationAdjustmentRed = 48,
			SaturationAdjustmentYellow = 0,
			ShadowTint = 26,
			Shadows = 31,
			SharpenDetail = 25,
			SharpenEdgeMasking = 0,
			SharpenRadius = 1,
			Sharpness = 25,
			SplitToningBalance = 19,
			SplitToningHighlightHue = 52,
			SplitToningHighlightSaturation = 86,
			SplitToningShadowHue = 184,
			SplitToningShadowSaturation = 39,
			Temperature = 4024,
			Tint = 3,
			ToneCurve = {
				0,
				0,
				32,
				16,
				64,
				50,
				128,
				128,
				192,
				202,
				255,
				255,
			},
			ToneCurveName = "Strong Contrast",
			Vibrance = 10,
			VignetteAmount = -100,
			VignetteMidpoint = 55,
			WhiteBalance = "Custom",
		},
		uuid = "BB106F5B-AA12-4F55-A4C6-7D0F7EBEA002",
	},
	version = 0,
}
