ASLR4 Presets/ASLR-A Koh Phangan 2.lrtemplate
s = {
	id = "71218E5E-A1F5-4D01-B663-F81DD97E76BF",
	internalName = "Warm 1",
	title = "ASLR-A Koh Phangan 2",
	type = "Develop",
	value = {
		settings = {
			AutoBrightness = false,
			AutoContrast = false,
			AutoExposure = false,
			AutoShadows = false,
			AutoTone = true,
			BlueHue = 0,
			BlueSaturation = 0,
			CameraProfile = "ACR 4.4",
			Clarity2012 = 20,
			ColorNoiseReduction = 25,
			ColorNoiseReductionDetail = 50,
			ConvertToGrayscale = false,
			EnableCalibration = true,
			EnableColorAdjustments = true,
			EnableDetail = true,
			EnableSplitToning = true,
			GreenHue = 0,
			GreenSaturation = 0,
			HueAdjustmentAqua = 0,
			HueAdjustmentBlue = -8,
			HueAdjustmentGreen = -9,
			HueAdjustmentMagenta = 0,
			HueAdjustmentOrange = 0,
			HueAdjustmentPurple = 0,
			HueAdjustmentRed = 0,
			HueAdjustmentYellow = -5,
			LuminanceAdjustmentAqua = 0,
			LuminanceAdjustmentBlue = -14,
			LuminanceAdjustmentGreen = 0,
			LuminanceAdjustmentMagenta = 0,
			LuminanceAdjustmentOrange = 0,
			LuminanceAdjustmentPurple = 0,
			LuminanceAdjustmentRed = 0,
			LuminanceAdjustmentYellow = 0,
			LuminanceNoiseReductionContrast = 0,
			LuminanceNoiseReductionDetail = 50,
			LuminanceSmoothing = 25,
			ParametricDarks = 56,
			ParametricHighlightSplit = 82,
			ParametricHighlights = 13,
			ParametricLights = 38,
			ParametricMidtoneSplit = 50,
			ParametricShadowSplit = 21,
			ParametricShadows = -9,
			ProcessVersion = "6.7",
			RedHue = 0,
			RedSaturation = 0,
			Saturation = 0,
			SaturationAdjustmentAqua = 14,
			SaturationAdjustmentBlue = 0,
			SaturationAdjustmentGreen = 30,
			SaturationAdjustmentMagenta = 36,
			SaturationAdjustmentOrange = 23,
			SaturationAdjustmentPurple = 0,
			SaturationAdjustmentRed = 36,
			SaturationAdjustmentYellow = 0,
			ShadowTint = -7,
			SharpenDetail = 25,
			SharpenEdgeMasking = 0,
			SharpenRadius = 1,
			Sharpness = 21,
			SplitToningBalance = 81,
			SplitToningHighlightHue = 60,
			SplitToningHighlightSaturation = 69,
			SplitToningShadowHue = 17,
			SplitToningShadowSaturation = 76,
			ToneCurveName2012 = "Custom",
			ToneCurvePV2012 = {
				0,
				0,
				17,
				11,
				34,
				27,
				51,
				45,
				68,
				63,
				85,
				81,
				102,
				99,
				119,
				118,
				136,
				137,
				153,
				156,
				170,
				175,
				187,
				193,
				204,
				210,
				221,
				226,
				238,
				241,
				255,
				255,
			},
			ToneCurvePV2012Blue = {
				0,
				0,
				255,
				255,
			},
			ToneCurvePV2012Green = {
				0,
				0,
				255,
				255,
			},
			ToneCurvePV2012Red = {
				0,
				0,
				255,
				255,
			},
			Vibrance = 44,
		},
		uuid = "BBDDAB1D-E32E-4EDE-A052-76C433B251CE",
	},
	version = 0,
}
