ASLR4 Presets/ASLR-B Tuaran Cemetery 1.lrtemplate
s = {
	id = "906BE0F1-D756-4E83-8A18-3DC8C60572C3",
	internalName = "Synaptic B: Cemetery 1",
	title = "ASLR-B Tuaran Cemetery 1",
	type = "Develop",
	value = {
		settings = {
			Blacks2012 = 0,
			BlueHue = -20,
			BlueSaturation = 0,
			CameraProfile = "Adobe Standard",
			Clarity2012 = 69,
			ColorNoiseReduction = 25,
			ColorNoiseReductionDetail = 50,
			Contrast2012 = -25,
			ConvertToGrayscale = false,
			EnableCalibration = true,
			EnableColorAdjustments = true,
			EnableDetail = true,
			EnableSplitToning = true,
			Exposure2012 = -0.25,
			GreenHue = 14,
			GreenSaturation = 0,
			Highlights2012 = -50,
			HueAdjustmentAqua = 0,
			HueAdjustmentBlue = 0,
			HueAdjustmentGreen = 0,
			HueAdjustmentMagenta = 0,
			HueAdjustmentOrange = 0,
			HueAdjustmentPurple = 0,
			HueAdjustmentRed = 0,
			HueAdjustmentYellow = 2,
			LuminanceAdjustmentAqua = 0,
			LuminanceAdjustmentBlue = 5,
			LuminanceAdjustmentGreen = 0,
			LuminanceAdjustmentMagenta = 0,
			LuminanceAdjustmentOrange = 0,
			LuminanceAdjustmentPurple = 0,
			LuminanceAdjustmentRed = 0,
			LuminanceAdjustmentYellow = 0,
			LuminanceNoiseReductionContrast = 0,
			LuminanceNoiseReductionDetail = 50,
			LuminanceSmoothing = 40,
			ParametricDarks = 71,
			ParametricHighlightSplit = 68,
			ParametricHighlights = -14,
			ParametricLights = 19,
			ParametricMidtoneSplit = 45,
			ParametricShadowSplit = 19,
			ParametricShadows = -34,
			ProcessVersion = "6.7",
			RedHue = 0,
			RedSaturation = -15,
			Saturation = 0,
			SaturationAdjustmentAqua = 0,
			SaturationAdjustmentBlue = 0,
			SaturationAdjustmentGreen = -8,
			SaturationAdjustmentMagenta = 0,
			SaturationAdjustmentOrange = 0,
			SaturationAdjustmentPurple = 0,
			SaturationAdjustmentRed = 0,
			SaturationAdjustmentYellow = 0,
			ShadowTint = 14,
			Shadows2012 = 57,
			SharpenDetail = 25,
			SharpenEdgeMasking = 0,
			SharpenRadius = 1,
			Sharpness = 25,
			SplitToningBalance = 31,
			SplitToningHighlightHue = 65,
			SplitToningHighlightSaturation = 56,
			SplitToningShadowHue = 35,
			SplitToningShadowSaturation = 32,
			ToneCurveName2012 = "Linear",
			ToneCurvePV2012 = {
				0,
				0,
				255,
				255,
			},
			ToneCurvePV2012Blue = {
				0,
				0,
				255,
				255,
			},
			ToneCurvePV2012Green = {
				0,
				0,
				255,
				255,
			},
			ToneCurvePV2012Red = {
				0,
				0,
				255,
				255,
			},
			Vibrance = 45,
			Whites2012 = 9,
		},
		uuid = "8E0C4458-7EB8-4FBA-9947-CBAA8BD8CAE8",
	},
	version = 0,
}
