ASLR3 Presets/Synaptic LRP- Vintage 2.lrtemplate
s = {
	id = "330E1219-76E8-4CFF-8817-2FD15A0F34B0",
	internalName = "Effect: Vintage 1 (AT)",
	title = "Synaptic LRP: Vintage 2",
	type = "Develop",
	value = {
		settings = {
			AutoBrightness = false,
			AutoContrast = false,
			AutoExposure = false,
			AutoShadows = false,
			AutoTone = true,
			BlueHue = 0,
			BlueSaturation = 0,
			CameraProfile = "Adobe Standard",
			Clarity = 47,
			ColorNoiseReduction = 25,
			ColorNoiseReductionDetail = 50,
			ConvertToGrayscale = false,
			EnableCalibration = true,
			EnableColorAdjustments = true,
			EnableDetail = true,
			EnableEffects = true,
			EnableLensCorrections = true,
			EnableSplitToning = true,
			GreenHue = 0,
			GreenSaturation = 0,
			HueAdjustmentAqua = 0,
			HueAdjustmentBlue = 0,
			HueAdjustmentGreen = 0,
			HueAdjustmentMagenta = 0,
			HueAdjustmentOrange = 0,
			HueAdjustmentPurple = 0,
			HueAdjustmentRed = 0,
			HueAdjustmentYellow = 9,
			LuminanceAdjustmentAqua = 0,
			LuminanceAdjustmentBlue = 0,
			LuminanceAdjustmentGreen = 0,
			LuminanceAdjustmentMagenta = 0,
			LuminanceAdjustmentOrange = 0,
			LuminanceAdjustmentPurple = 0,
			LuminanceAdjustmentRed = 0,
			LuminanceAdjustmentYellow = 0,
			LuminanceNoiseReductionContrast = 0,
			LuminanceNoiseReductionDetail = 50,
			LuminanceSmoothing = 33,
			ParametricDarks = 79,
			ParametricHighlightSplit = 75,
			ParametricHighlights = -19,
			ParametricLights = -43,
			ParametricMidtoneSplit = 50,
			ParametricShadowSplit = 25,
			ParametricShadows = -26,
			PostCropVignetteAmount = 0,
			PostCropVignetteFeather = 50,
			PostCropVignetteHighlightContrast = 0,
			PostCropVignetteMidpoint = 49,
			PostCropVignetteRoundness = 0,
			PostCropVignetteStyle = 1,
			ProcessVersion = "5.7",
			RedHue = 0,
			RedSaturation = 0,
			Saturation = -6,
			SaturationAdjustmentAqua = 24,
			SaturationAdjustmentBlue = 10,
			SaturationAdjustmentGreen = 41,
			SaturationAdjustmentMagenta = 0,
			SaturationAdjustmentOrange = 26,
			SaturationAdjustmentPurple = 0,
			SaturationAdjustmentRed = 17,
			SaturationAdjustmentYellow = 0,
			ShadowTint = -15,
			SharpenDetail = 25,
			SharpenEdgeMasking = 0,
			SharpenRadius = 1,
			Sharpness = 25,
			SplitToningBalance = 47,
			SplitToningHighlightHue = 57,
			SplitToningHighlightSaturation = 72,
			SplitToningShadowHue = 25,
			SplitToningShadowSaturation = 46,
			ToneCurve = {
				0,
				0,
				32,
				16,
				64,
				50,
				128,
				128,
				192,
				202,
				255,
				255,
			},
			ToneCurveName = "Strong Contrast",
			Vibrance = 72,
			VignetteAmount = -48,
			VignetteMidpoint = 51,
			WhiteBalance = "Auto",
		},
		uuid = "63FFDCAA-8BC4-4AB5-B643-CC7722EE60E7",
	},
	version = 0,
}
