ASLR3 Presets/Synaptic LRPx- Neon Nights 2.lrtemplate
s = {
	id = "1AC941EC-47F3-4BE4-B03D-A28AE37B0A20",
	internalName = "Synaptic EX: Neon Nights 2",
	title = "Synaptic LRPx: Neon Nights 2",
	type = "Develop",
	value = {
		settings = {
			AutoBrightness = false,
			AutoContrast = false,
			AutoExposure = false,
			AutoShadows = false,
			BlueHue = 0,
			BlueSaturation = 0,
			Brightness = 53,
			CameraProfile = "Adobe Standard",
			Clarity = 67,
			ColorNoiseReduction = 25,
			ColorNoiseReductionDetail = 50,
			Contrast = -19,
			ConvertToGrayscale = false,
			EnableCalibration = true,
			EnableColorAdjustments = true,
			EnableDetail = true,
			EnableEffects = true,
			EnableLensCorrections = true,
			EnableSplitToning = true,
			Exposure = 0.17,
			FillLight = 23,
			GreenHue = 0,
			GreenSaturation = 0,
			HighlightRecovery = 45,
			HueAdjustmentAqua = 0,
			HueAdjustmentBlue = 0,
			HueAdjustmentGreen = 0,
			HueAdjustmentMagenta = 0,
			HueAdjustmentOrange = 29,
			HueAdjustmentPurple = 0,
			HueAdjustmentRed = 0,
			HueAdjustmentYellow = 0,
			LuminanceAdjustmentAqua = 0,
			LuminanceAdjustmentBlue = 0,
			LuminanceAdjustmentGreen = 0,
			LuminanceAdjustmentMagenta = 0,
			LuminanceAdjustmentOrange = 0,
			LuminanceAdjustmentPurple = 0,
			LuminanceAdjustmentRed = 0,
			LuminanceAdjustmentYellow = 0,
			LuminanceNoiseReductionContrast = 0,
			LuminanceNoiseReductionDetail = 50,
			LuminanceSmoothing = 28,
			ParametricDarks = -21,
			ParametricHighlightSplit = 75,
			ParametricHighlights = 0,
			ParametricLights = 24,
			ParametricMidtoneSplit = 50,
			ParametricShadowSplit = 25,
			ParametricShadows = -41,
			PostCropVignetteAmount = 0,
			PostCropVignetteFeather = 0,
			PostCropVignetteHighlightContrast = 0,
			PostCropVignetteMidpoint = 50,
			PostCropVignetteRoundness = 0,
			PostCropVignetteStyle = 1,
			ProcessVersion = "5.7",
			RedHue = 0,
			RedSaturation = 0,
			Saturation = 0,
			SaturationAdjustmentAqua = -20,
			SaturationAdjustmentBlue = 22,
			SaturationAdjustmentGreen = 0,
			SaturationAdjustmentMagenta = 0,
			SaturationAdjustmentOrange = -25,
			SaturationAdjustmentPurple = 0,
			SaturationAdjustmentRed = 50,
			SaturationAdjustmentYellow = -18,
			ShadowTint = -10,
			Shadows = 18,
			SharpenDetail = 0,
			SharpenEdgeMasking = 0,
			SharpenRadius = 0.5,
			Sharpness = 17,
			SplitToningBalance = 26,
			SplitToningHighlightHue = 98,
			SplitToningHighlightSaturation = 35,
			SplitToningShadowHue = 241,
			SplitToningShadowSaturation = 67,
			ToneCurve = {
				0,
				0,
				255,
				255,
			},
			ToneCurveName = "Linear",
			Vibrance = 0,
			VignetteAmount = -100,
			VignetteMidpoint = 37,
		},
		uuid = "55EE0FA1-9A13-4405-9827-9F3612AE9C18",
	},
	version = 0,
}
