ASLR3 Presets/Synaptic LRP- Night Subtle 1.lrtemplate
s = {
	id = "A82C0A2E-A090-4201-AF6A-EF6F05BD8CB2",
	internalName = "Night 1",
	title = "Synaptic LRP: Night Subtle 1",
	type = "Develop",
	value = {
		settings = {
			AutoBrightness = false,
			AutoContrast = false,
			AutoExposure = false,
			AutoShadows = false,
			AutoTone = true,
			Clarity = 6,
			ColorNoiseReduction = 25,
			ColorNoiseReductionDetail = 50,
			ConvertToGrayscale = false,
			EnableDetail = true,
			EnableSplitToning = true,
			LuminanceNoiseReductionContrast = 0,
			LuminanceNoiseReductionDetail = 50,
			LuminanceSmoothing = 30,
			ParametricDarks = 0,
			ParametricHighlightSplit = 75,
			ParametricHighlights = 0,
			ParametricLights = 0,
			ParametricMidtoneSplit = 50,
			ParametricShadowSplit = 25,
			ParametricShadows = 0,
			ProcessVersion = "5.7",
			SharpenDetail = 25,
			SharpenEdgeMasking = 0,
			SharpenRadius = 1,
			Sharpness = 10,
			SplitToningBalance = 0,
			SplitToningHighlightHue = 50,
			SplitToningHighlightSaturation = 26,
			SplitToningShadowHue = 228,
			SplitToningShadowSaturation = 18,
			ToneCurve = {
				0,
				0,
				32,
				22,
				64,
				56,
				128,
				128,
				192,
				196,
				255,
				255,
			},
			ToneCurveName = "Medium Contrast",
			WhiteBalance = "Auto",
		},
		uuid = "4ADCD2B4-5CB8-47D0-BAAE-F0403F3E79CD",
	},
	version = 0,
}
