ASLR3 Presets/Synaptic LRPx- White Silhouette 2.lrtemplate
s = {
	id = "1F21CDC3-2FF1-4363-8F61-D3BE35686CBA",
	internalName = "White Rim Cyan",
	title = "Synaptic LRPx: White Silhouette 2",
	type = "Develop",
	value = {
		settings = {
			AutoBrightness = false,
			AutoContrast = false,
			AutoExposure = false,
			AutoShadows = false,
			BlueHue = -55,
			BlueSaturation = 76,
			Brightness = 131,
			CameraProfile = "ACR 4.4",
			ChromaticAberrationB = 0,
			ChromaticAberrationR = 0,
			Clarity = 54,
			Contrast = 54,
			ConvertToGrayscale = false,
			CropConstrainToWarp = 0,
			Defringe = 0,
			EnableCalibration = true,
			EnableColorAdjustments = true,
			EnableDetail = true,
			EnableEffects = true,
			EnableLensCorrections = true,
			EnableSplitToning = true,
			Exposure = -0.51,
			FillLight = 20,
			GrainAmount = 0,
			GrainFrequency = 50,
			GrainSize = 50,
			GreenHue = -2,
			GreenSaturation = -86,
			HighlightRecovery = 0,
			HueAdjustmentAqua = 0,
			HueAdjustmentBlue = 0,
			HueAdjustmentGreen = 0,
			HueAdjustmentMagenta = 0,
			HueAdjustmentOrange = 0,
			HueAdjustmentPurple = 0,
			HueAdjustmentRed = 0,
			HueAdjustmentYellow = 0,
			LensManualDistortionAmount = 0,
			LensProfileEnable = 0,
			LensProfileSetup = "LensDefaults",
			LuminanceAdjustmentAqua = 0,
			LuminanceAdjustmentBlue = 0,
			LuminanceAdjustmentGreen = 0,
			LuminanceAdjustmentMagenta = 0,
			LuminanceAdjustmentOrange = 0,
			LuminanceAdjustmentPurple = 0,
			LuminanceAdjustmentRed = 0,
			LuminanceAdjustmentYellow = 0,
			ParametricDarks = 3,
			ParametricHighlightSplit = 75,
			ParametricHighlights = 12,
			ParametricLights = 26,
			ParametricMidtoneSplit = 50,
			ParametricShadowSplit = 25,
			ParametricShadows = -37,
			PerspectiveHorizontal = 0,
			PerspectiveRotate = 0,
			PerspectiveScale = 100,
			PerspectiveVertical = 0,
			PostCropVignetteAmount = 0,
			PostCropVignetteFeather = 50,
			PostCropVignetteHighlightContrast = 0,
			PostCropVignetteMidpoint = 50,
			PostCropVignetteRoundness = 0,
			PostCropVignetteStyle = 1,
			ProcessVersion = "5.7",
			RedHue = -19,
			RedSaturation = 21,
			Saturation = -61,
			SaturationAdjustmentAqua = 0,
			SaturationAdjustmentBlue = 0,
			SaturationAdjustmentGreen = 0,
			SaturationAdjustmentMagenta = 0,
			SaturationAdjustmentOrange = 0,
			SaturationAdjustmentPurple = 0,
			SaturationAdjustmentRed = 0,
			SaturationAdjustmentYellow = 0,
			ShadowTint = 100,
			Shadows = 37,
			SharpenDetail = 25,
			SharpenEdgeMasking = 0,
			SharpenRadius = 1,
			Sharpness = 20,
			SplitToningBalance = 0,
			SplitToningHighlightHue = 58,
			SplitToningHighlightSaturation = 22,
			SplitToningShadowHue = 286,
			SplitToningShadowSaturation = 24,
			Temperature = 3458,
			Tint = -78,
			ToneCurve = {
				0,
				0,
				32,
				22,
				64,
				56,
				136,
				128,
				192,
				196,
				255,
				255,
			},
			ToneCurveName = "Custom",
			Vibrance = -17,
			VignetteAmount = 100,
			VignetteMidpoint = 32,
			WhiteBalance = "Custom",
			orientation = "AB",
		},
		uuid = "96830A6A-A2A0-4080-8358-D02521715FBA",
	},
	version = 0,
}
