ASLR3 Presets/Synaptic LRP- Crisp 2.lrtemplate
s = {
	id = "3982E69A-03DD-4D7A-B396-39E9868B0928",
	internalName = "Standard-2",
	title = "Synaptic LRP: Crisp 2",
	type = "Develop",
	value = {
		settings = {
			AutoBrightness = false,
			AutoContrast = false,
			AutoExposure = false,
			AutoShadows = false,
			BlueHue = 0,
			BlueSaturation = 0,
			Brightness = 34,
			CameraProfile = "Adobe Standard",
			Clarity = 56,
			ColorNoiseReduction = 25,
			ColorNoiseReductionDetail = 50,
			Contrast = 57,
			ConvertToGrayscale = false,
			EnableCalibration = true,
			EnableColorAdjustments = true,
			EnableDetail = true,
			EnableEffects = true,
			EnableLensCorrections = true,
			EnableSplitToning = true,
			Exposure = 0.78,
			FillLight = 24,
			GreenHue = 0,
			GreenSaturation = 0,
			HighlightRecovery = 0,
			HueAdjustmentAqua = 0,
			HueAdjustmentBlue = 0,
			HueAdjustmentGreen = 0,
			HueAdjustmentMagenta = 0,
			HueAdjustmentOrange = 0,
			HueAdjustmentPurple = 0,
			HueAdjustmentRed = 0,
			HueAdjustmentYellow = 0,
			LuminanceAdjustmentAqua = 0,
			LuminanceAdjustmentBlue = 0,
			LuminanceAdjustmentGreen = 0,
			LuminanceAdjustmentMagenta = 0,
			LuminanceAdjustmentOrange = 0,
			LuminanceAdjustmentPurple = 0,
			LuminanceAdjustmentRed = 0,
			LuminanceAdjustmentYellow = 0,
			LuminanceNoiseReductionContrast = 0,
			LuminanceNoiseReductionDetail = 50,
			LuminanceSmoothing = 25,
			ParametricDarks = 28,
			ParametricHighlightSplit = 75,
			ParametricHighlights = 0,
			ParametricLights = 19,
			ParametricMidtoneSplit = 50,
			ParametricShadowSplit = 25,
			ParametricShadows = -24,
			PostCropVignetteAmount = 0,
			PostCropVignetteFeather = 50,
			PostCropVignetteHighlightContrast = 0,
			PostCropVignetteMidpoint = 50,
			PostCropVignetteRoundness = 0,
			PostCropVignetteStyle = 1,
			ProcessVersion = "5.7",
			RedHue = 0,
			RedSaturation = 0,
			Saturation = -40,
			SaturationAdjustmentAqua = -3,
			SaturationAdjustmentBlue = 0,
			SaturationAdjustmentGreen = 5,
			SaturationAdjustmentMagenta = 0,
			SaturationAdjustmentOrange = 9,
			SaturationAdjustmentPurple = 0,
			SaturationAdjustmentRed = 5,
			SaturationAdjustmentYellow = 26,
			ShadowTint = 10,
			Shadows = 6,
			SharpenDetail = 25,
			SharpenEdgeMasking = 0,
			SharpenRadius = 1,
			Sharpness = 25,
			SplitToningBalance = 0,
			SplitToningHighlightHue = 60,
			SplitToningHighlightSaturation = 41,
			SplitToningShadowHue = 223,
			SplitToningShadowSaturation = 15,
			ToneCurve = {
				0,
				0,
				32,
				16,
				64,
				50,
				128,
				128,
				192,
				202,
				255,
				255,
			},
			ToneCurveName = "Strong Contrast",
			Vibrance = 10,
			VignetteAmount = -100,
			VignetteMidpoint = 7,
		},
		uuid = "BF6574DA-999E-4849-B67D-35849C459F52",
	},
	version = 0,
}
