ASLR3 Presets/Synaptic LRPx- Stark 2.lrtemplate
s = {
	id = "686CCA28-DDA7-4E29-B3A2-543DB3CFD7A4",
	internalName = "Dramatic 2",
	title = "Synaptic LRPx: Stark 2",
	type = "Develop",
	value = {
		settings = {
			AutoBrightness = false,
			AutoContrast = false,
			AutoExposure = false,
			AutoShadows = false,
			BlueHue = 0,
			BlueSaturation = 0,
			Brightness = 0,
			CameraProfile = "ACR 4.4",
			Clarity = 69,
			Contrast = 100,
			ConvertToGrayscale = false,
			EnableCalibration = true,
			EnableColorAdjustments = true,
			EnableDetail = true,
			EnableGrayscaleMix = true,
			EnableSplitToning = true,
			EnableVignettes = true,
			Exposure = 1.75,
			FillLight = 25,
			GreenHue = 0,
			GreenSaturation = 0,
			HighlightRecovery = 0,
			HueAdjustmentAqua = 0,
			HueAdjustmentBlue = 0,
			HueAdjustmentGreen = 0,
			HueAdjustmentMagenta = 0,
			HueAdjustmentOrange = 0,
			HueAdjustmentPurple = 0,
			HueAdjustmentRed = 0,
			HueAdjustmentYellow = 0,
			LuminanceAdjustmentAqua = 0,
			LuminanceAdjustmentBlue = -2,
			LuminanceAdjustmentGreen = 0,
			LuminanceAdjustmentMagenta = 0,
			LuminanceAdjustmentOrange = 0,
			LuminanceAdjustmentPurple = 0,
			LuminanceAdjustmentRed = 0,
			LuminanceAdjustmentYellow = 0,
			ParametricDarks = 24,
			ParametricHighlightSplit = 75,
			ParametricHighlights = 0,
			ParametricLights = 10,
			ParametricMidtoneSplit = 50,
			ParametricShadowSplit = 25,
			ParametricShadows = 2,
			PostCropVignetteAmount = 0,
			PostCropVignetteFeather = 50,
			PostCropVignetteMidpoint = 49,
			PostCropVignetteRoundness = 0,
			RedHue = 0,
			RedSaturation = 0,
			Saturation = -12,
			SaturationAdjustmentAqua = 0,
			SaturationAdjustmentBlue = 0,
			SaturationAdjustmentGreen = 0,
			SaturationAdjustmentMagenta = 0,
			SaturationAdjustmentOrange = 0,
			SaturationAdjustmentPurple = 0,
			SaturationAdjustmentRed = 0,
			SaturationAdjustmentYellow = 0,
			ShadowTint = 0,
			Shadows = 54,
			SharpenDetail = 25,
			SharpenEdgeMasking = 0,
			SharpenRadius = 1,
			Sharpness = 25,
			SplitToningBalance = 26,
			SplitToningHighlightHue = 52,
			SplitToningHighlightSaturation = 69,
			SplitToningShadowHue = 9,
			SplitToningShadowSaturation = 57,
			ToneCurve = {
				0,
				0,
				32,
				16,
				64,
				50,
				128,
				128,
				192,
				202,
				255,
				255,
			},
			ToneCurveName = "Strong Contrast",
			Vibrance = 10,
			VignetteAmount = -71,
			VignetteMidpoint = 21,
			WhiteBalance = "Auto",
		},
		uuid = "E6A78CAF-CE55-47DD-B1F9-5CE8907F9F02",
	},
	version = 0,
}
