ASLR3 Presets/Synaptic LRP- Vibrant 3.lrtemplate
s = {
	id = "919631F4-F014-44C9-9E8C-461981D79539",
	internalName = "Effect: Vibrant 3",
	title = "Synaptic LRP: Vibrant 3",
	type = "Develop",
	value = {
		settings = {
			AutoBrightness = false,
			AutoContrast = false,
			AutoExposure = false,
			AutoShadows = false,
			BlueHue = 0,
			BlueSaturation = 0,
			Brightness = 50,
			CameraProfile = "Adobe Standard",
			Clarity = 45,
			ColorNoiseReduction = 25,
			ColorNoiseReductionDetail = 50,
			Contrast = 52,
			ConvertToGrayscale = false,
			EnableCalibration = true,
			EnableColorAdjustments = true,
			EnableDetail = true,
			EnableEffects = true,
			EnableLensCorrections = true,
			EnableSplitToning = true,
			Exposure = 0,
			FillLight = 26,
			GreenHue = 0,
			GreenSaturation = 0,
			HighlightRecovery = 16,
			HueAdjustmentAqua = 0,
			HueAdjustmentBlue = 0,
			HueAdjustmentGreen = 0,
			HueAdjustmentMagenta = 0,
			HueAdjustmentOrange = 0,
			HueAdjustmentPurple = 0,
			HueAdjustmentRed = 0,
			HueAdjustmentYellow = 0,
			LuminanceAdjustmentAqua = 0,
			LuminanceAdjustmentBlue = 0,
			LuminanceAdjustmentGreen = 0,
			LuminanceAdjustmentMagenta = 0,
			LuminanceAdjustmentOrange = 0,
			LuminanceAdjustmentPurple = 0,
			LuminanceAdjustmentRed = 0,
			LuminanceAdjustmentYellow = 0,
			LuminanceNoiseReductionContrast = 0,
			LuminanceNoiseReductionDetail = 50,
			LuminanceSmoothing = 25,
			ParametricDarks = 18,
			ParametricHighlightSplit = 75,
			ParametricHighlights = 0,
			ParametricLights = 49,
			ParametricMidtoneSplit = 50,
			ParametricShadowSplit = 25,
			ParametricShadows = -24,
			PostCropVignetteAmount = 0,
			PostCropVignetteFeather = 50,
			PostCropVignetteHighlightContrast = 0,
			PostCropVignetteMidpoint = 50,
			PostCropVignetteRoundness = 0,
			PostCropVignetteStyle = 1,
			ProcessVersion = "5.7",
			RedHue = 0,
			RedSaturation = 0,
			Saturation = 0,
			SaturationAdjustmentAqua = 0,
			SaturationAdjustmentBlue = 11,
			SaturationAdjustmentGreen = 0,
			SaturationAdjustmentMagenta = 18,
			SaturationAdjustmentOrange = 0,
			SaturationAdjustmentPurple = 41,
			SaturationAdjustmentRed = 5,
			SaturationAdjustmentYellow = 26,
			ShadowTint = -15,
			Shadows = 0,
			SharpenDetail = 25,
			SharpenEdgeMasking = 0,
			SharpenRadius = 1,
			Sharpness = 25,
			SplitToningBalance = 0,
			SplitToningHighlightHue = 60,
			SplitToningHighlightSaturation = 53,
			SplitToningShadowHue = 286,
			SplitToningShadowSaturation = 26,
			ToneCurve = {
				0,
				0,
				32,
				16,
				64,
				50,
				128,
				128,
				192,
				202,
				255,
				255,
			},
			ToneCurveName = "Strong Contrast",
			Vibrance = 52,
			VignetteAmount = -77,
			VignetteMidpoint = 2,
		},
		uuid = "F52515C9-2A47-4DEB-8A45-7536AE799D02",
	},
	version = 0,
}
