Synaptic Presets (Series 2)/Hualien 1.lrtemplate
s = {
	id = "61EBF0C3-66E6-4813-85E0-DED1E82FBA0F",
	internalName = "Hualien 1",
	title = "Hualien 1",
	type = "Develop",
	value = {
		settings = {
			AutoBrightness = false,
			AutoContrast = false,
			AutoExposure = false,
			AutoShadows = false,
			AutoTone = true,
			BlueHue = -20,
			BlueSaturation = 0,
			CameraProfile = "Adobe Standard",
			Clarity2012 = 45,
			ConvertToGrayscale = false,
			EnableCalibration = true,
			EnableColorAdjustments = true,
			EnableSplitToning = true,
			GreenHue = 0,
			GreenSaturation = -9,
			HueAdjustmentAqua = 0,
			HueAdjustmentBlue = 22,
			HueAdjustmentGreen = 0,
			HueAdjustmentMagenta = 0,
			HueAdjustmentOrange = 3,
			HueAdjustmentPurple = 0,
			HueAdjustmentRed = 0,
			HueAdjustmentYellow = 9,
			LuminanceAdjustmentAqua = 0,
			LuminanceAdjustmentBlue = 0,
			LuminanceAdjustmentGreen = 0,
			LuminanceAdjustmentMagenta = 0,
			LuminanceAdjustmentOrange = 0,
			LuminanceAdjustmentPurple = 0,
			LuminanceAdjustmentRed = 0,
			LuminanceAdjustmentYellow = 0,
			ParametricDarks = 35,
			ParametricHighlightSplit = 74,
			ParametricHighlights = -9,
			ParametricLights = 0,
			ParametricMidtoneSplit = 33,
			ParametricShadowSplit = 11,
			ParametricShadows = -34,
			ProcessVersion = "6.7",
			RedHue = 10,
			RedSaturation = 13,
			Saturation = -10,
			SaturationAdjustmentAqua = -40,
			SaturationAdjustmentBlue = -16,
			SaturationAdjustmentGreen = -24,
			SaturationAdjustmentMagenta = 0,
			SaturationAdjustmentOrange = 25,
			SaturationAdjustmentPurple = 0,
			SaturationAdjustmentRed = 14,
			SaturationAdjustmentYellow = -6,
			ShadowTint = 17,
			SplitToningBalance = 47,
			SplitToningHighlightHue = 65,
			SplitToningHighlightSaturation = 39,
			SplitToningShadowHue = 25,
			SplitToningShadowSaturation = 22,
			ToneCurveName2012 = "Custom",
			ToneCurvePV2012 = {
				0,
				0,
				17,
				11,
				34,
				27,
				51,
				45,
				68,
				63,
				85,
				81,
				102,
				99,
				119,
				118,
				136,
				137,
				153,
				156,
				170,
				175,
				187,
				193,
				204,
				210,
				221,
				226,
				238,
				241,
				255,
				255,
			},
			ToneCurvePV2012Blue = {
				0,
				0,
				255,
				255,
			},
			ToneCurvePV2012Green = {
				0,
				0,
				255,
				255,
			},
			ToneCurvePV2012Red = {
				0,
				0,
				255,
				255,
			},
			Vibrance = 28,
		},
		uuid = "5A20CBB0-EA05-42A1-8FFA-A7752614B2D5",
	},
	version = 0,
}
