Synaptic Presets (Series 2)/Stanley Park 1 (A).lrtemplate
s = {
	id = "E68C527B-DC3A-4EEE-82B8-83D8DFCB459B",
	internalName = "ASLR-A Capilano Canyon 2",
	title = "Stanley Park 1 (A)",
	type = "Develop",
	value = {
		settings = {
			BlueHue = -6,
			BlueSaturation = -3,
			CameraProfile = "Adobe Standard",
			Clarity2012 = 60,
			ConvertToGrayscale = false,
			EnableCalibration = true,
			EnableColorAdjustments = true,
			EnableSplitToning = true,
			GreenHue = 0,
			GreenSaturation = 8,
			HueAdjustmentAqua = 0,
			HueAdjustmentBlue = 0,
			HueAdjustmentGreen = 0,
			HueAdjustmentMagenta = 0,
			HueAdjustmentOrange = 0,
			HueAdjustmentPurple = 0,
			HueAdjustmentRed = 0,
			HueAdjustmentYellow = 7,
			LuminanceAdjustmentAqua = 0,
			LuminanceAdjustmentBlue = -11,
			LuminanceAdjustmentGreen = 0,
			LuminanceAdjustmentMagenta = 0,
			LuminanceAdjustmentOrange = 0,
			LuminanceAdjustmentPurple = 0,
			LuminanceAdjustmentRed = 0,
			LuminanceAdjustmentYellow = 0,
			ParametricDarks = 38,
			ParametricHighlightSplit = 72,
			ParametricHighlights = -35,
			ParametricLights = 0,
			ParametricMidtoneSplit = 36,
			ParametricShadowSplit = 15,
			ParametricShadows = -49,
			ProcessVersion = "6.7",
			RedHue = 0,
			RedSaturation = -12,
			Saturation = -14,
			SaturationAdjustmentAqua = 0,
			SaturationAdjustmentBlue = 20,
			SaturationAdjustmentGreen = 34,
			SaturationAdjustmentMagenta = 0,
			SaturationAdjustmentOrange = 0,
			SaturationAdjustmentPurple = 30,
			SaturationAdjustmentRed = 0,
			SaturationAdjustmentYellow = 11,
			ShadowTint = 11,
			SplitToningBalance = 32,
			SplitToningHighlightHue = 66,
			SplitToningHighlightSaturation = 81,
			SplitToningShadowHue = 268,
			SplitToningShadowSaturation = 23,
			ToneCurveName2012 = "Linear",
			ToneCurvePV2012 = {
				0,
				0,
				255,
				255,
			},
			ToneCurvePV2012Blue = {
				0,
				0,
				255,
				255,
			},
			ToneCurvePV2012Green = {
				0,
				0,
				255,
				255,
			},
			ToneCurvePV2012Red = {
				0,
				0,
				255,
				255,
			},
			Vibrance = 36,
		},
		uuid = "E3D8117A-1579-4A9E-A7A6-F67159B3BC03",
	},
	version = 0,
}
