Synaptic Presets (Series 3)/Jingmei 1.lrtemplate
s = {
	id = "05795528-948C-45C8-97F6-45F949BED048",
	internalName = "Jinan 1 (A)",
	title = "Jingmei 1",
	type = "Develop",
	value = {
		settings = {
			AutoBrightness = false,
			AutoContrast = false,
			AutoExposure = false,
			AutoShadows = false,
			AutoTone = true,
			BlueHue = -8,
			BlueSaturation = -25,
			CameraProfile = "Adobe Standard",
			Clarity2012 = 55,
			ConvertToGrayscale = false,
			EnableCalibration = true,
			EnableColorAdjustments = true,
			EnableSplitToning = true,
			GreenHue = -3,
			GreenSaturation = -16,
			HueAdjustmentAqua = 0,
			HueAdjustmentBlue = 0,
			HueAdjustmentGreen = -9,
			HueAdjustmentMagenta = 0,
			HueAdjustmentOrange = 0,
			HueAdjustmentPurple = -11,
			HueAdjustmentRed = 4,
			HueAdjustmentYellow = -15,
			LuminanceAdjustmentAqua = -2,
			LuminanceAdjustmentBlue = -2,
			LuminanceAdjustmentGreen = 0,
			LuminanceAdjustmentMagenta = 0,
			LuminanceAdjustmentOrange = 0,
			LuminanceAdjustmentPurple = 0,
			LuminanceAdjustmentRed = 0,
			LuminanceAdjustmentYellow = 7,
			ParametricDarks = 29,
			ParametricHighlightSplit = 70,
			ParametricHighlights = -11,
			ParametricLights = 15,
			ParametricMidtoneSplit = 44,
			ParametricShadowSplit = 15,
			ParametricShadows = -25,
			ProcessVersion = "6.7",
			RedHue = 4,
			RedSaturation = 25,
			Saturation = 0,
			SaturationAdjustmentAqua = -51,
			SaturationAdjustmentBlue = -16,
			SaturationAdjustmentGreen = -33,
			SaturationAdjustmentMagenta = -53,
			SaturationAdjustmentOrange = -42,
			SaturationAdjustmentPurple = -42,
			SaturationAdjustmentRed = -16,
			SaturationAdjustmentYellow = -24,
			ShadowTint = -15,
			SplitToningBalance = 48,
			SplitToningHighlightHue = 61,
			SplitToningHighlightSaturation = 49,
			SplitToningShadowHue = 237,
			SplitToningShadowSaturation = 13,
			ToneCurveName2012 = "Medium Contrast",
			ToneCurvePV2012 = {
				0,
				0,
				32,
				22,
				64,
				56,
				128,
				128,
				192,
				196,
				255,
				255,
			},
			ToneCurvePV2012Blue = {
				0,
				0,
				255,
				255,
			},
			ToneCurvePV2012Green = {
				0,
				0,
				255,
				255,
			},
			ToneCurvePV2012Red = {
				0,
				0,
				255,
				255,
			},
			Vibrance = 2,
		},
		uuid = "7FDE7AB4-D34C-45C3-BD26-8505B4BB1F20",
	},
	version = 0,
}
