Synaptic Presets (Series 3)/Tainan 2.lrtemplate
s = {
	id = "B0FF963F-1EA4-4770-B8CC-F8D97BB19F7E",
	internalName = "Tainan 5 (A)",
	title = "Tainan 2",
	type = "Develop",
	value = {
		settings = {
			AutoBrightness = false,
			AutoContrast = false,
			AutoExposure = false,
			AutoShadows = false,
			AutoTone = true,
			BlueHue = -15,
			BlueSaturation = 0,
			CameraProfile = "Adobe Standard",
			Clarity2012 = 42,
			ConvertToGrayscale = false,
			EnableCalibration = true,
			EnableColorAdjustments = true,
			EnableSplitToning = true,
			GreenHue = 7,
			GreenSaturation = 0,
			HueAdjustmentAqua = 0,
			HueAdjustmentBlue = -8,
			HueAdjustmentGreen = 4,
			HueAdjustmentMagenta = 0,
			HueAdjustmentOrange = 0,
			HueAdjustmentPurple = 0,
			HueAdjustmentRed = 7,
			HueAdjustmentYellow = 2,
			LuminanceAdjustmentAqua = -5,
			LuminanceAdjustmentBlue = -22,
			LuminanceAdjustmentGreen = 0,
			LuminanceAdjustmentMagenta = 0,
			LuminanceAdjustmentOrange = 4,
			LuminanceAdjustmentPurple = 0,
			LuminanceAdjustmentRed = 0,
			LuminanceAdjustmentYellow = 6,
			ParametricDarks = 38,
			ParametricHighlightSplit = 84,
			ParametricHighlights = -4,
			ParametricLights = 1,
			ParametricMidtoneSplit = 56,
			ParametricShadowSplit = 14,
			ParametricShadows = 6,
			ProcessVersion = "6.7",
			RedHue = 5,
			RedSaturation = 0,
			Saturation = -5,
			SaturationAdjustmentAqua = 7,
			SaturationAdjustmentBlue = 19,
			SaturationAdjustmentGreen = -35,
			SaturationAdjustmentMagenta = -24,
			SaturationAdjustmentOrange = 5,
			SaturationAdjustmentPurple = -33,
			SaturationAdjustmentRed = 7,
			SaturationAdjustmentYellow = -1,
			ShadowTint = -11,
			SplitToningBalance = 41,
			SplitToningHighlightHue = 60,
			SplitToningHighlightSaturation = 34,
			SplitToningShadowHue = 20,
			SplitToningShadowSaturation = 19,
			ToneCurveName2012 = "Linear",
			ToneCurvePV2012 = {
				0,
				0,
				255,
				255,
			},
			ToneCurvePV2012Blue = {
				0,
				0,
				255,
				255,
			},
			ToneCurvePV2012Green = {
				0,
				0,
				255,
				255,
			},
			ToneCurvePV2012Red = {
				0,
				0,
				255,
				255,
			},
			Vibrance = 17,
		},
		uuid = "B953C6D6-904B-42F3-9B87-A0C010216231",
	},
	version = 0,
}
