Synaptic Presets (2011)/Scarborough 2 (A).lrtemplate
s = {
	id = "330E1219-76E8-4CFF-8817-2FD15A0F34B0",
	internalName = "Effect: Vintage 1 (AT)",
	title = "Scarborough 2 (A)",
	type = "Develop",
	value = {
		settings = {
			AutoBrightness = false,
			AutoContrast = false,
			AutoExposure = false,
			AutoShadows = false,
			AutoTone = true,
			BlueHue = 0,
			BlueSaturation = 0,
			CameraProfile = "Adobe Standard",
			Clarity2012 = 23,
			ColorNoiseReduction = 25,
			ColorNoiseReductionDetail = 50,
			ConvertToGrayscale = false,
			EnableCalibration = true,
			EnableColorAdjustments = true,
			EnableDetail = true,
			EnableSplitToning = true,
			GreenHue = 0,
			GreenSaturation = 0,
			HueAdjustmentAqua = 0,
			HueAdjustmentBlue = 0,
			HueAdjustmentGreen = 0,
			HueAdjustmentMagenta = 0,
			HueAdjustmentOrange = 0,
			HueAdjustmentPurple = 0,
			HueAdjustmentRed = 0,
			HueAdjustmentYellow = 9,
			LuminanceAdjustmentAqua = 0,
			LuminanceAdjustmentBlue = -10,
			LuminanceAdjustmentGreen = 0,
			LuminanceAdjustmentMagenta = 0,
			LuminanceAdjustmentOrange = 0,
			LuminanceAdjustmentPurple = 0,
			LuminanceAdjustmentRed = 0,
			LuminanceAdjustmentYellow = 0,
			LuminanceNoiseReductionContrast = 0,
			LuminanceNoiseReductionDetail = 50,
			LuminanceSmoothing = 33,
			ParametricDarks = 79,
			ParametricHighlightSplit = 80,
			ParametricHighlights = -35,
			ParametricLights = -19,
			ParametricMidtoneSplit = 44,
			ParametricShadowSplit = 18,
			ParametricShadows = -30,
			ProcessVersion = "6.7",
			RedHue = 0,
			RedSaturation = 0,
			Saturation = -6,
			SaturationAdjustmentAqua = 24,
			SaturationAdjustmentBlue = 10,
			SaturationAdjustmentGreen = 41,
			SaturationAdjustmentMagenta = 0,
			SaturationAdjustmentOrange = 26,
			SaturationAdjustmentPurple = 0,
			SaturationAdjustmentRed = 17,
			SaturationAdjustmentYellow = 0,
			ShadowTint = -15,
			SharpenDetail = 25,
			SharpenEdgeMasking = 0,
			SharpenRadius = 1,
			Sharpness = 25,
			SplitToningBalance = 47,
			SplitToningHighlightHue = 57,
			SplitToningHighlightSaturation = 72,
			SplitToningShadowHue = 25,
			SplitToningShadowSaturation = 46,
			ToneCurveName2012 = "Custom",
			ToneCurvePV2012 = {
				0,
				0,
				17,
				11,
				34,
				27,
				51,
				45,
				68,
				63,
				85,
				81,
				102,
				99,
				119,
				118,
				136,
				137,
				153,
				156,
				170,
				175,
				187,
				193,
				204,
				210,
				221,
				226,
				238,
				241,
				255,
				255,
			},
			ToneCurvePV2012Blue = {
				0,
				0,
				255,
				255,
			},
			ToneCurvePV2012Green = {
				0,
				0,
				255,
				255,
			},
			ToneCurvePV2012Red = {
				0,
				0,
				255,
				255,
			},
			Vibrance = 72,
		},
		uuid = "566983F2-BCAB-481C-9542-E177F7406290",
	},
	version = 0,
}
