Synaptic Presets/ASLR-B Golden Dawn 1.lrtemplate
s = {
	id = "65AAD488-8CB5-488C-A802-A62053B49818",
	internalName = "Asyn-B Golden Sunset 1",
	title = "ASLR-B Golden Dawn 1",
	type = "Develop",
	value = {
		settings = {
			Blacks2012 = -3,
			BlueHue = 0,
			BlueSaturation = 0,
			CameraProfile = "Adobe Standard",
			Clarity2012 = 45,
			ColorNoiseReduction = 25,
			ColorNoiseReductionDetail = 50,
			Contrast2012 = -9,
			ConvertToGrayscale = false,
			EnableCalibration = true,
			EnableColorAdjustments = true,
			EnableDetail = true,
			EnableSplitToning = true,
			Exposure2012 = -0.55,
			GreenHue = 0,
			GreenSaturation = 0,
			Highlights2012 = -18,
			HueAdjustmentAqua = 0,
			HueAdjustmentBlue = 20,
			HueAdjustmentGreen = 0,
			HueAdjustmentMagenta = 0,
			HueAdjustmentOrange = 0,
			HueAdjustmentPurple = 0,
			HueAdjustmentRed = 0,
			HueAdjustmentYellow = 0,
			LuminanceAdjustmentAqua = 0,
			LuminanceAdjustmentBlue = -32,
			LuminanceAdjustmentGreen = 0,
			LuminanceAdjustmentMagenta = 0,
			LuminanceAdjustmentOrange = 0,
			LuminanceAdjustmentPurple = 0,
			LuminanceAdjustmentRed = 0,
			LuminanceAdjustmentYellow = 0,
			LuminanceNoiseReductionContrast = 0,
			LuminanceNoiseReductionDetail = 50,
			LuminanceSmoothing = 30,
			ParametricDarks = 22,
			ParametricHighlightSplit = 75,
			ParametricHighlights = -71,
			ParametricLights = 33,
			ParametricMidtoneSplit = 50,
			ParametricShadowSplit = 18,
			ParametricShadows = -21,
			ProcessVersion = "6.7",
			RedHue = 0,
			RedSaturation = 0,
			Saturation = 0,
			SaturationAdjustmentAqua = -20,
			SaturationAdjustmentBlue = -29,
			SaturationAdjustmentGreen = 0,
			SaturationAdjustmentMagenta = 0,
			SaturationAdjustmentOrange = 30,
			SaturationAdjustmentPurple = 0,
			SaturationAdjustmentRed = 27,
			SaturationAdjustmentYellow = 19,
			ShadowTint = -16,
			Shadows2012 = 57,
			SharpenDetail = 25,
			SharpenEdgeMasking = 0,
			SharpenRadius = 1,
			Sharpness = 25,
			SplitToningBalance = 27,
			SplitToningHighlightHue = 66,
			SplitToningHighlightSaturation = 24,
			SplitToningShadowHue = 15,
			SplitToningShadowSaturation = 22,
			ToneCurveName2012 = "Linear",
			ToneCurvePV2012 = {
				0,
				0,
				255,
				255,
			},
			ToneCurvePV2012Blue = {
				0,
				0,
				255,
				255,
			},
			ToneCurvePV2012Green = {
				0,
				0,
				255,
				255,
			},
			ToneCurvePV2012Red = {
				0,
				0,
				255,
				255,
			},
			Vibrance = 42,
			Whites2012 = 10,
		},
		uuid = "92941C34-9F2C-4442-A2CE-37AE5CCCA60F",
	},
	version = 0,
}
