Synaptic Presets/ASLR-A Vintage Fade 3.lrtemplate
s = {
	id = "D75CAADA-A517-4374-A76E-8AB50BBA9F20",
	internalName = "ASLR-A Vintage Fade 3",
	title = "ASLR-A Vintage Fade 3",
	type = "Develop",
	value = {
		settings = {
			AutoBrightness = false,
			AutoContrast = false,
			AutoExposure = false,
			AutoShadows = false,
			AutoTone = true,
			BlueHue = 0,
			BlueSaturation = 0,
			CameraProfile = "Adobe Standard",
			Clarity2012 = 47,
			ColorNoiseReduction = 25,
			ColorNoiseReductionDetail = 50,
			ConvertToGrayscale = false,
			EnableCalibration = true,
			EnableColorAdjustments = true,
			EnableDetail = true,
			EnableSplitToning = true,
			GreenHue = 0,
			GreenSaturation = 0,
			HueAdjustmentAqua = 0,
			HueAdjustmentBlue = 10,
			HueAdjustmentGreen = 0,
			HueAdjustmentMagenta = 0,
			HueAdjustmentOrange = 3,
			HueAdjustmentPurple = 0,
			HueAdjustmentRed = 0,
			HueAdjustmentYellow = 9,
			LuminanceAdjustmentAqua = 0,
			LuminanceAdjustmentBlue = -64,
			LuminanceAdjustmentGreen = 0,
			LuminanceAdjustmentMagenta = 0,
			LuminanceAdjustmentOrange = -32,
			LuminanceAdjustmentPurple = 0,
			LuminanceAdjustmentRed = 0,
			LuminanceAdjustmentYellow = 17,
			LuminanceNoiseReductionContrast = 0,
			LuminanceNoiseReductionDetail = 50,
			LuminanceSmoothing = 33,
			ParametricDarks = 38,
			ParametricHighlightSplit = 80,
			ParametricHighlights = 60,
			ParametricLights = -11,
			ParametricMidtoneSplit = 44,
			ParametricShadowSplit = 18,
			ParametricShadows = -30,
			ProcessVersion = "6.7",
			RedHue = 0,
			RedSaturation = 0,
			Saturation = 0,
			SaturationAdjustmentAqua = 24,
			SaturationAdjustmentBlue = 10,
			SaturationAdjustmentGreen = 41,
			SaturationAdjustmentMagenta = 0,
			SaturationAdjustmentOrange = 57,
			SaturationAdjustmentPurple = 0,
			SaturationAdjustmentRed = 65,
			SaturationAdjustmentYellow = -58,
			ShadowTint = -15,
			SharpenDetail = 25,
			SharpenEdgeMasking = 0,
			SharpenRadius = 1,
			Sharpness = 25,
			SplitToningBalance = 47,
			SplitToningHighlightHue = 57,
			SplitToningHighlightSaturation = 72,
			SplitToningShadowHue = 256,
			SplitToningShadowSaturation = 52,
			ToneCurveName2012 = "Custom",
			ToneCurvePV2012 = {
				0,
				0,
				17,
				11,
				34,
				27,
				51,
				45,
				68,
				63,
				85,
				81,
				102,
				99,
				119,
				118,
				136,
				137,
				153,
				156,
				170,
				175,
				187,
				193,
				204,
				210,
				221,
				226,
				238,
				241,
				255,
				255,
			},
			ToneCurvePV2012Blue = {
				0,
				0,
				255,
				255,
			},
			ToneCurvePV2012Green = {
				0,
				0,
				255,
				255,
			},
			ToneCurvePV2012Red = {
				0,
				0,
				255,
				255,
			},
			Vibrance = 55,
		},
		uuid = "239431C0-8CCD-4DDD-A9D8-78F88F4CC2D1",
	},
	version = 0,
}
