Synaptic Presets (Custom)/Stanley Park 4.lrtemplate
s = {
	id = "050600DE-5EBF-4160-A834-D645B38984FE",
	internalName = "ASLR-B Victorian Miasma 4",
	title = "Stanley Park 4",
	type = "Develop",
	value = {
		settings = {
			Blacks2012 = 25,
			BlueHue = -31,
			BlueSaturation = 0,
			CameraProfile = "Adobe Standard",
			Clarity2012 = 72,
			ColorNoiseReduction = 25,
			ColorNoiseReductionDetail = 50,
			Contrast2012 = 26,
			ConvertToGrayscale = false,
			EnableCalibration = true,
			EnableColorAdjustments = true,
			EnableDetail = true,
			EnableSplitToning = true,
			Exposure2012 = 0.38,
			GreenHue = 0,
			GreenSaturation = 0,
			Highlights2012 = -89,
			HueAdjustmentAqua = 0,
			HueAdjustmentBlue = 0,
			HueAdjustmentGreen = 17,
			HueAdjustmentMagenta = 0,
			HueAdjustmentOrange = 0,
			HueAdjustmentPurple = 0,
			HueAdjustmentRed = 0,
			HueAdjustmentYellow = 8,
			LuminanceAdjustmentAqua = 0,
			LuminanceAdjustmentBlue = -23,
			LuminanceAdjustmentGreen = 0,
			LuminanceAdjustmentMagenta = 0,
			LuminanceAdjustmentOrange = 0,
			LuminanceAdjustmentPurple = 0,
			LuminanceAdjustmentRed = 0,
			LuminanceAdjustmentYellow = 5,
			LuminanceNoiseReductionContrast = 0,
			LuminanceNoiseReductionDetail = 50,
			LuminanceSmoothing = 25,
			ParametricDarks = 66,
			ParametricHighlightSplit = 75,
			ParametricHighlights = 29,
			ParametricLights = -3,
			ParametricMidtoneSplit = 50,
			ParametricShadowSplit = 17,
			ParametricShadows = 2,
			ProcessVersion = "6.7",
			RedHue = 0,
			RedSaturation = -15,
			Saturation = -6,
			SaturationAdjustmentAqua = 0,
			SaturationAdjustmentBlue = -8,
			SaturationAdjustmentGreen = 43,
			SaturationAdjustmentMagenta = 0,
			SaturationAdjustmentOrange = 16,
			SaturationAdjustmentPurple = 0,
			SaturationAdjustmentRed = 12,
			SaturationAdjustmentYellow = 8,
			ShadowTint = 21,
			Shadows2012 = 28,
			SharpenDetail = 25,
			SharpenEdgeMasking = 0,
			SharpenRadius = 1,
			Sharpness = 25,
			SplitToningBalance = 16,
			SplitToningHighlightHue = 66,
			SplitToningHighlightSaturation = 70,
			SplitToningShadowHue = 252,
			SplitToningShadowSaturation = 22,
			ToneCurveName2012 = "Linear",
			ToneCurvePV2012 = {
				0,
				0,
				255,
				255,
			},
			ToneCurvePV2012Blue = {
				0,
				0,
				255,
				255,
			},
			ToneCurvePV2012Green = {
				0,
				0,
				255,
				255,
			},
			ToneCurvePV2012Red = {
				0,
				0,
				255,
				255,
			},
			Vibrance = 55,
			Whites2012 = -14,
		},
		uuid = "D164EDA6-6B73-424C-94EB-76A6CF3B6677",
	},
	version = 0,
}
