Synaptic Presets (2013)/Kaohsiung 1.lrtemplate
s = {
	id = "F8E24E61-0C9F-463C-933A-0D628BD0EA8B",
	internalName = "Kaohsiung Sunset 1",
	title = "Kaohsiung 1",
	type = "Develop",
	value = {
		settings = {
			Blacks2012 = -9,
			BlueHue = -31,
			BlueSaturation = -12,
			CameraProfile = "Adobe Standard",
			Clarity2012 = 59,
			ColorNoiseReduction = 25,
			ColorNoiseReductionDetail = 50,
			Contrast2012 = 56,
			ConvertToGrayscale = false,
			EnableCalibration = true,
			EnableColorAdjustments = true,
			EnableDetail = true,
			EnableSplitToning = true,
			Exposure2012 = 0,
			GreenHue = 11,
			GreenSaturation = 13,
			Highlights2012 = -60,
			HueAdjustmentAqua = 18,
			HueAdjustmentBlue = 43,
			HueAdjustmentGreen = 17,
			HueAdjustmentMagenta = 0,
			HueAdjustmentOrange = 4,
			HueAdjustmentPurple = -26,
			HueAdjustmentRed = -9,
			HueAdjustmentYellow = 8,
			LuminanceAdjustmentAqua = -3,
			LuminanceAdjustmentBlue = -31,
			LuminanceAdjustmentGreen = 5,
			LuminanceAdjustmentMagenta = 0,
			LuminanceAdjustmentOrange = 0,
			LuminanceAdjustmentPurple = -9,
			LuminanceAdjustmentRed = 0,
			LuminanceAdjustmentYellow = 0,
			LuminanceNoiseReductionContrast = 0,
			LuminanceNoiseReductionDetail = 50,
			LuminanceSmoothing = 25,
			ParametricDarks = 60,
			ParametricHighlightSplit = 84,
			ParametricHighlights = 10,
			ParametricLights = -10,
			ParametricMidtoneSplit = 55,
			ParametricShadowSplit = 10,
			ParametricShadows = -2,
			ProcessVersion = "6.7",
			RedHue = 0,
			RedSaturation = -15,
			Saturation = 0,
			SaturationAdjustmentAqua = -8,
			SaturationAdjustmentBlue = -19,
			SaturationAdjustmentGreen = 17,
			SaturationAdjustmentMagenta = 0,
			SaturationAdjustmentOrange = 66,
			SaturationAdjustmentPurple = 21,
			SaturationAdjustmentRed = 3,
			SaturationAdjustmentYellow = 8,
			ShadowTint = 21,
			Shadows2012 = 74,
			SharpenDetail = 25,
			SharpenEdgeMasking = 0,
			SharpenRadius = 1,
			Sharpness = 25,
			SplitToningBalance = 16,
			SplitToningHighlightHue = 66,
			SplitToningHighlightSaturation = 79,
			SplitToningShadowHue = 252,
			SplitToningShadowSaturation = 22,
			ToneCurveName2012 = "Linear",
			ToneCurvePV2012 = {
				0,
				0,
				255,
				255,
			},
			ToneCurvePV2012Blue = {
				0,
				0,
				255,
				255,
			},
			ToneCurvePV2012Green = {
				0,
				0,
				255,
				255,
			},
			ToneCurvePV2012Red = {
				0,
				0,
				255,
				255,
			},
			Vibrance = -97,
			Whites2012 = 12,
		},
		uuid = "88F4DBE1-910C-4812-9108-639ABF6C21F6",
	},
	version = 0,
}
