Synaptic Presets (Experimental)/Krabi 1 (A).lrtemplate
s = {
	id = "CE37E79F-FF27-4EBC-9DA7-B92584ED73D1",
	internalName = "Landscape: Sunset",
	title = "Krabi 1 (A)",
	type = "Develop",
	value = {
		settings = {
			AutoBrightness = false,
			AutoContrast = false,
			AutoExposure = false,
			AutoShadows = false,
			AutoTone = true,
			BlueHue = 0,
			BlueSaturation = 0,
			CameraProfile = "Adobe Standard",
			Clarity2012 = 41,
			ColorNoiseReduction = 25,
			ColorNoiseReductionDetail = 50,
			ConvertToGrayscale = false,
			EnableCalibration = true,
			EnableColorAdjustments = true,
			EnableDetail = true,
			EnableSplitToning = true,
			GreenHue = 0,
			GreenSaturation = 0,
			HueAdjustmentAqua = 14,
			HueAdjustmentBlue = -21,
			HueAdjustmentGreen = 0,
			HueAdjustmentMagenta = 0,
			HueAdjustmentOrange = 0,
			HueAdjustmentPurple = 0,
			HueAdjustmentRed = 0,
			HueAdjustmentYellow = 29,
			LuminanceAdjustmentAqua = 0,
			LuminanceAdjustmentBlue = -40,
			LuminanceAdjustmentGreen = 9,
			LuminanceAdjustmentMagenta = 0,
			LuminanceAdjustmentOrange = 0,
			LuminanceAdjustmentPurple = 0,
			LuminanceAdjustmentRed = 0,
			LuminanceAdjustmentYellow = 0,
			LuminanceNoiseReductionContrast = 0,
			LuminanceNoiseReductionDetail = 50,
			LuminanceSmoothing = 25,
			ParametricDarks = 40,
			ParametricHighlightSplit = 75,
			ParametricHighlights = 0,
			ParametricLights = 16,
			ParametricMidtoneSplit = 50,
			ParametricShadowSplit = 25,
			ParametricShadows = -12,
			ProcessVersion = "6.7",
			RedHue = 0,
			RedSaturation = 0,
			Saturation = 0,
			SaturationAdjustmentAqua = 2,
			SaturationAdjustmentBlue = -7,
			SaturationAdjustmentGreen = 27,
			SaturationAdjustmentMagenta = 0,
			SaturationAdjustmentOrange = 34,
			SaturationAdjustmentPurple = 0,
			SaturationAdjustmentRed = 7,
			SaturationAdjustmentYellow = 14,
			ShadowTint = -24,
			SharpenDetail = 25,
			SharpenEdgeMasking = 0,
			SharpenRadius = 1,
			Sharpness = 12,
			SplitToningBalance = 33,
			SplitToningHighlightHue = 59,
			SplitToningHighlightSaturation = 78,
			SplitToningShadowHue = 17,
			SplitToningShadowSaturation = 67,
			ToneCurveName2012 = "Custom",
			ToneCurvePV2012 = {
				0,
				0,
				17,
				11,
				34,
				27,
				51,
				45,
				68,
				63,
				85,
				81,
				102,
				99,
				119,
				118,
				136,
				137,
				153,
				156,
				170,
				175,
				187,
				193,
				204,
				210,
				221,
				226,
				238,
				241,
				255,
				255,
			},
			ToneCurvePV2012Blue = {
				0,
				0,
				255,
				255,
			},
			ToneCurvePV2012Green = {
				0,
				0,
				255,
				255,
			},
			ToneCurvePV2012Red = {
				0,
				0,
				255,
				255,
			},
			Vibrance = 21,
		},
		uuid = "45866BB4-0457-47EE-984D-D59D9AB0AF28",
	},
	version = 0,
}
